svg/furkot/freepik/picnic.svg

<svg viewBox="0 0 512 512" xmlns="http://www.w3.org/2000/svg"><path d="m490.749 367.2h-82.749l-42.524-114.93h26.433c14.941 0 27.584-12.642 27.584-27.583s-12.642-27.583-27.584-27.583h-271.233c-14.941 0-27.583 12.642-27.583 27.583s12.642 27.583 27.583 27.583h26.434l-42.524 114.93h-82.749c-11.493 0-21.837 10.342-21.837 21.835s10.344 21.839 21.837 21.839h65.509l-25.284 66.658c-4.597 11.493 1.149 24.135 12.642 27.583 2.299 1.149 4.597 1.149 8.045 1.149 9.195 0 17.24-5.746 20.688-13.792l31.031-82.749h243.65l31.031 82.749c3.448 9.195 11.493 13.792 20.688 13.792 2.298 0 4.598 0 8.045-1.149 11.493-4.597 17.239-17.239 12.642-27.583l-25.285-66.658h65.51c11.493 0 21.837-10.346 21.837-21.839-.001-12.64-9.194-21.835-21.837-21.835zm-340.191 0 42.524-114.93h126.422l42.524 114.93zm43.673-202.277c2.299 8.046 9.194 12.643 17.239 12.643h87.347c8.045 0 14.941-5.747 17.239-12.643l21.837-70.107c1.149-5.746 1.149-11.493-2.299-16.09s-9.194-6.895-14.94-6.895h-49.42v-49.42c0-9.195-6.895-16.09-16.09-16.09s-16.09 6.895-16.09 16.09v49.42h-49.42c-5.747 0-11.493 2.298-14.941 6.895s-4.597 10.344-2.299 16.09z"/></svg>

<svg xmlns="http://www.w3.org/2000/svg" viewBox="0 0 512 512"><path d="M490.749 367.2H408L365.476 252.27H391.909C406.85 252.27 419.493 239.628 419.493 224.687 419.493 209.746 406.851 197.104 391.909 197.104H120.676C105.735 197.104 93.093 209.746 93.093 224.687 93.093 239.628 105.735 252.27 120.676 252.27H147.11L104.586 367.2H21.837C10.344 367.2 0 377.542 0 389.035S10.344 410.874 21.837 410.874H87.346L62.062 477.532C57.465 489.025 63.211 501.667 74.704 505.115 77.003 506.264 79.301 506.264 82.749 506.264 91.944 506.264 99.989 500.518 103.437 492.472L134.468 409.723H378.118L409.149 492.472C412.597 501.667 420.642 506.264 429.837 506.264 432.135 506.264 434.435 506.264 437.882 505.115 449.375 500.518 455.121 487.876 450.524 477.532L425.239 410.874H490.749C502.242 410.874 512.586 400.528 512.586 389.035 512.585 376.395 503.392 367.2 490.749 367.2ZM150.558 367.2L193.082 252.27H319.504L362.028 367.2H150.558ZM194.231 164.923C196.53 172.969 203.425 177.566 211.47 177.566H298.817C306.862 177.566 313.758 171.819 316.056 164.923L337.893 94.816C339.042 89.07 339.042 83.323 335.594 78.726S326.4 71.831 320.654 71.831H271.234V22.411C271.234 13.216 264.339 6.321 255.144 6.321S239.054 13.216 239.054 22.411V71.831H189.634C183.887 71.831 178.141 74.129 174.693 78.726S170.096 89.07 172.394 94.816L194.231 164.923Z"/></svg>
